X:4
T:Green bushes - hard
C:Taken down from R. Hard, by S.B.G. Oct. 1888.
%%VWML:SBG-1-1-213-0
F:http://www.vwml.org/record/SBG/1/1/213
Z:Original Sibleius Transcription by Martin and Shan Graebe
M:4/4
L:1/8
K:G
D | D2 GA B2 GA | B2 [GA]G2< D2D | B,2 DG A2 BA | [G2A2] [GB][AG] A2Dd  D | 
B2 AB2d2cB | A2G A2<B2  G | B2[AB]G d2cB | A2G [A2F2]<G2 z||
T:Green bushes - old man on dartmoor - crossing
T:Taken down from an old man on Dartmoor in 1858 by W. Crossing, Sth. Brent.
M:3/4
L:1/8
K:F
C2 | F2 F GF |E2 F2AB | c2 cBG2 | F4 C2 | F2 F2 GF | E2 F2 AB | c2 _e2d2 | c4 AB | 
c2 f2f_e | c2 d2_e2 | c2 cBG2 | F4 C2 | F3  A GF | E2 F2AB | c2 cBG2 | F4z2||
T:Green bushes - parsons
T:Taken down from Jas. Parsons by S.B.G. Oct. 1889.
M:3/4
L:1/8
K:G
D2 | G2 G2 AG | F2 G2 Bc | d2 d2 B2 | A4 D2 | G2 G2 AG |F2 G2 Bc | d2 e2 d2 | c4 Bc | 
d2 d2 g2 |d2 d2 AB | c2 c2 d2 | (B2 A2) C2 | G2 G2 AG |F2 G2 d2 | B2 cB A2 | G4 z2||
T:Green bushes - buckstone
T:From Buckstone’s “The Green Bushes” popular Irish air as sung by Mrs. Fitzwilliam, 1845.
M:6/8
L:1/8
K:A
A/c/ | c>Bc AFE | F<AA A2A | Acf e<cA | cB>B B2B/B/ |
 Ace ecA |fe>c B2A/B/ | c>Bc AFE/E/ | FAA !fermata!Ac/B/A2| c/B/A2 z2||
T:Green bushes - buckstone 2
T:“The Green Bushes” written by F.B. Buckstone, comp. by F.W.Fitzwilliam.” pub. Brewer & Co. n.d.
M:3/4
L:1/8
K:A
AB | c2 A2 F2 | E2 C2 E2 | F2 A2 A2 | A4 A2 | A2 c2 e2 |f2<e2 c2 | c2 B2 B2 | (B4 B>)A | A2 c2 e2 |
f2 e2 c2 | c2 B2 B2 | c4 AB | c2 A2 F2 |E2 C2 EE | F2<A2 A2 | (A4 Ac/B/ | A4 Ac/B/ |A2)||
T:Green bushes - connaught & munster
T:“The Green Bushes” air in Connaught & Munster
T:Joyce’s “Ancient Irish Music” No. 23
M:3/4
L:1/8
K:A
E2 | A2 c2 A2 | G>A Bc d2 | e2 fd B>A | G4 (3EFG | A2 c2 A2 |
GA Bc d2 | e2 ge f^d | e4 ||cd | e2 c2 a2 |f2 e2 f/e/c/B/ |
 A2 AB c>A | F4 (3EFG | A2 c2 BA |GA B2 cd | e2 fd B>G | A4 ||


